X:622
T: "Bauern - Elend"
N: Z1302
O: Europa, Mitteleuropa, Schweiz
R: Handwerker -, Bauern - Lied
M: 4/4
L: 1/8
K: G
G3AB2cB | A2BAG2D2 |
B3cd2ed | c2AcB2z2 |
G3AB2cB | A2BAG2D2 |
B3cd2ed | c2dcB2z2 |
d2ede2d2 | d2ede2d2 |
d2ede2d2 | d2ede2d2 |
d3cB2G2 | A3BG2z2

@@@ Tune index: 10380
